src/assets/icons/months,fancy,april-4.svg

<svg width="48" height="48" viewBox="0 0 48 48" fill="none" xmlns="http://www.w3.org/2000/svg">
<rect opacity="0.2" x="4" y="6" width="40" height="40" rx="4" fill="black"/>
<path d="M10.603 36L11.4666 33.3466H15.6655L16.5291 36H19.1655L15.1541 24.3636H11.9837L7.96662 36H10.603ZM12.0916 31.4261L13.5234 27.0227H13.6143L15.0462 31.4261H12.0916ZM20.5661 36H23.0263V32.2273H25.0945C27.7706 32.2273 29.3274 30.6307 29.3274 28.3068C29.3274 25.9943 27.799 24.3636 25.157 24.3636H20.5661V36ZM23.0263 30.2557V26.375H24.6854C26.1058 26.375 26.7933 27.1477 26.7933 28.3068C26.7933 29.4602 26.1058 30.2557 24.6967 30.2557H23.0263ZM30.9254 36H33.3857V31.875H35.1811L37.3857 36H40.1016L37.63 31.4773C38.9538 30.9091 39.6868 29.7557 39.6868 28.1648C39.6868 25.8523 38.1584 24.3636 35.5163 24.3636H30.9254V36ZM33.3857 29.8977V26.375H35.0447C36.4652 26.375 37.1527 27.0057 37.1527 28.1648C37.1527 29.3182 36.4652 29.8977 35.0561 29.8977H33.3857Z" fill="black"/>
<g opacity="0.4">
<path d="M10 4C10 2.89543 10.8954 2 12 2C13.1046 2 14 2.89543 14 4V8C14 9.10457 13.1046 10 12 10C10.8954 10 10 9.10457 10 8V4Z" fill="black"/>
<path d="M34 4C34 2.89543 34.8954 2 36 2C37.1046 2 38 2.89543 38 4V8C38 9.10457 37.1046 10 36 10C34.8954 10 34 9.10457 34 8V4Z" fill="black"/>
</g>
<path fill-rule="evenodd" clip-rule="evenodd" d="M10 6.00869C7.52043 6.04456 6.11466 6.22849 5.17157 7.17157C4 8.34315 4 10.2288 4 14V16H44V14C44 10.2288 44 8.34315 42.8284 7.17157C41.8853 6.22849 40.4796 6.04456 38 6.00869V8C38 9.10457 37.1046 10 36 10C34.8954 10 34 9.10457 34 8V6H14V8C14 9.10457 13.1046 10 12 10C10.8954 10 10 9.10457 10 8V6.00869Z" fill="black"/>
</svg>

<svg xmlns="http://www.w3.org/2000/svg" width="48" height="48" fill="none" viewBox="0 0 48 48">
  <rect width="40" height="40" x="4" y="6" fill="#000" opacity=".2" rx="4"/>
  <path fill="#000" d="M10.603 36l.864-2.653h4.198L16.53 36h2.637l-4.012-11.636h-3.17L7.967 36h2.636zm1.489-4.574l1.431-4.403h.091l1.432 4.403h-2.954zM20.566 36h2.46v-3.773h2.069c2.676 0 4.232-1.596 4.232-3.92 0-2.313-1.528-3.943-4.17-3.943h-4.59V36zm2.46-5.744v-3.881h1.66c1.42 0 2.107.773 2.107 1.932 0 1.153-.687 1.949-2.096 1.949h-1.67zm7.9 5.744h2.46v-4.125h1.795L37.386 36h2.716l-2.472-4.523c1.324-.568 2.057-1.721 2.057-3.312 0-2.313-1.529-3.801-4.17-3.801h-4.592V36zm2.46-6.102v-3.523h1.659c1.42 0 2.108.63 2.108 1.79 0 1.153-.688 1.733-2.097 1.733h-1.67z"/>
  <g opacity=".4">
    <path fill="#000" d="M10 4a2 2 0 114 0v4a2 2 0 11-4 0V4zM34 4a2 2 0 114 0v4a2 2 0 11-4 0V4z"/>
  </g>
  <path fill="#000" fill-rule="evenodd" d="M10 6.009c-2.48.036-3.885.22-4.828 1.163C4 8.343 4 10.229 4 14v2h40v-2c0-3.771 0-5.657-1.172-6.828-.943-.944-2.348-1.127-4.828-1.163V8a2 2 0 11-4 0V6H14v2a2 2 0 11-4 0V6.009z" clip-rule="evenodd"/>
</svg>
